images/skills/4-skills-internet-db-sm.svg

<?xml version="1.0" encoding="UTF-8" standalone="no"?>
<svg width="56px" height="56px" viewBox="0 0 56 56" version="1.1" xmlns="http://www.w3.org/2000/svg" xmlns:xlink="http://www.w3.org/1999/xlink" xmlns:sketch="http://www.bohemiancoding.com/sketch/ns">
    <!-- Generator: Sketch 3.2.2 (9983) - http://www.bohemiancoding.com/sketch -->
    <title>internet-db</title>
    <desc>Created with Sketch.</desc>
    <defs></defs>
    <g id="Small" stroke="none" stroke-width="1" fill="none" fill-rule="evenodd" sketch:type="MSPage">
        <g id="internet-db" sketch:type="MSLayerGroup" fill="#FFFFFF">
            <path d="M28,29.1274092 C33.9995815,29.1274092 40.6646154,27.1475938 40.6646154,24.2440369 L40.6646154,21.4064738 C38.4246154,23.5181046 33.6699569,24.9039754 28,24.9039754 C22.3300431,24.9039754 17.5753846,23.5181046 15.3353846,21.4064738 L15.3353846,24.2440369 C15.3353846,27.1475938 22.0004185,29.1274092 28,29.1274092" id="Fill-1" sketch:type="MSShapeGroup"></path>
            <path d="M28,35.4623015 C33.9995815,35.4623015 40.6646154,33.4826585 40.6646154,30.5791015 L40.6646154,27.0156062 C38.4246154,29.1274092 33.6699569,30.5791015 28,30.5791015 C22.3300431,30.5791015 17.5753846,29.1274092 15.3353846,27.0156062 L15.3353846,30.5791015 C15.3353846,33.4826585 22.0004185,35.4623015 28,35.4623015" id="Fill-2" sketch:type="MSShapeGroup"></path>
            <path d="M28,23.5181046 C33.9995815,23.5181046 40.6585846,21.4724677 40.6585846,18.5689108 C40.6585846,15.6653538 33.9995815,13.6855385 28,13.6855385 C22.0004185,13.6855385 15.3414154,15.6653538 15.3414154,18.5689108 C15.3414154,21.4724677 22.0004185,23.5181046 28,23.5181046" id="Fill-3" sketch:type="MSShapeGroup"></path>
            <path d="M28,41.7975385 C33.9995815,41.7975385 40.6646154,39.8177231 40.6646154,36.9141662 L40.6646154,33.3506708 C38.4246154,35.4623015 33.6699569,36.9141662 28,36.9141662 C22.3300431,36.9141662 17.5753846,35.4623015 15.3353846,33.3506708 L15.3353846,36.9141662 C15.3353846,39.8177231 22.0004185,41.7975385 28,41.7975385" id="Fill-4" sketch:type="MSShapeGroup"></path>
            <path d="M28.7753846,0 L28.7753846,1.85644308 L50.2266585,14.2007385 C50.4937354,14.3546092 50.6584615,14.6392615 50.6584615,14.94752 L50.6584615,40.1332185 C50.6584615,40.4414769 50.4937354,40.7261292 50.2266585,40.88 L28.3435815,53.4729354 C28.0775385,53.6259446 27.7501538,53.6259446 27.4841108,53.4729354 L5.60103385,40.88 C5.33395692,40.7261292 5.16923077,40.4414769 5.16923077,40.1332185 L5.16923077,14.94752 C5.16923077,14.6392615 5.33395692,14.3544369 5.60120615,14.2007385 L24.59968,3.27281231 C25.0121846,3.03554462 25.5387569,3.17752615 25.7760246,3.59003077 C26.0132923,4.00253538 25.8713108,4.52910769 25.4588062,4.76637538 L6.89230769,15.4458338 L6.89230769,39.6350769 L27.9138462,51.7321108 L48.9353846,39.6350769 L48.9353846,15.4458338 L27.4841108,3.10136615 C27.2170338,2.94749538 27.0523077,2.66284308 27.0523077,2.35458462 L27.0523077,0 L0,0 L0,56 L56,56 L56,0 L28.7753846,0 L28.7753846,0 Z M28,12.2338462 C35.91168,12.2338462 42.0430769,15.0714092 42.0430769,18.5689108 L42.0430769,36.9141662 C42.0430769,40.4776615 35.91168,43.2492308 28,43.2492308 C20.0884923,43.2492308 13.9569231,40.4776615 13.9569231,36.9141662 L13.9569231,18.5689108 C13.9569231,15.0714092 20.0884923,12.2338462 28,12.2338462 L28,12.2338462 Z" id="Fill-5" sketch:type="MSShapeGroup"></path>
        </g>
    </g>
</svg>

<svg width="56" height="56" viewBox="0 0 56 56" xmlns="http://www.w3.org/2000/svg"><title>internet-db</title><desc>Created with Sketch.</desc><g fill="#fff"><path d="M28 29.127c6 0 12.665-1.98 12.665-4.883v-2.838c-2.24 2.112-6.995 3.498-12.665 3.498-5.67 0-10.425-1.386-12.665-3.498v2.838c0 2.904 6.665 4.883 12.665 4.883"/><path d="M28 35.462c6 0 12.665-1.98 12.665-4.883v-3.564C38.425 29.126 33.67 30.58 28 30.58c-5.67 0-10.425-1.453-12.665-3.564v3.563C15.335 33.482 22 35.46 28 35.46"/><path d="M28 23.518c6 0 12.66-2.046 12.66-4.95 0-2.903-6.66-4.882-12.66-4.882s-12.66 1.98-12.66 4.883c0 2.902 6.66 4.948 12.66 4.948"/><path d="M28 41.798c6 0 12.665-1.98 12.665-4.884V33.35c-2.24 2.112-6.995 3.564-12.665 3.564-5.67 0-10.425-1.452-12.665-3.563v3.564c0 2.904 6.665 4.884 12.665 4.884"/><path d="M28.775 0v1.856L50.227 14.2c.267.155.43.44.43.748v25.185c0 .308-.163.593-.43.747L28.344 53.473c-.266.153-.594.153-.86 0L5.6 40.88c-.266-.154-.43-.44-.43-.747V14.948c0-.31.164-.594.43-.747l19-10.927c.412-.237.94-.095 1.176.317.237.413.095.94-.317 1.176L6.89 15.446v24.19L27.914 51.73l21.02-12.097v-24.19L27.485 3.102c-.267-.153-.432-.437-.432-.745V0H0v56h56V0H28.775zM28 12.234c7.912 0 14.043 2.837 14.043 6.335v18.344c0 3.564-6.13 6.335-14.043 6.335-7.912 0-14.043-2.772-14.043-6.336V18.57c0-3.5 6.13-6.336 14.043-6.336z"/></g></svg>
